src/public/icons/trade.svg

<svg viewBox="0 0 30 30" fill="none"
  xmlns="http://www.w3.org/2000/svg">
  <path d="M7.15003 22.019H6.50843C6.33733 22.019 6.18335 21.9505 6.04647 21.8136C5.9267 21.6597 5.86682 21.4629 5.86682 21.2234V12.8568C5.86682 12.7029 5.9267 12.566 6.04647 12.4462C6.18335 12.3093 6.33733 12.2409 6.50843 12.2409H7.48367V7.64701C7.48367 7.33904 7.64621 7.18506 7.97128 7.18506H8.79254C8.87809 7.18506 8.94652 7.22783 8.99785 7.31338C9.06629 7.38182 9.10051 7.49303 9.10051 7.64701V12.2409H10.0757C10.2468 12.2409 10.4265 12.3093 10.6147 12.4462C10.8029 12.566 10.897 12.7029 10.897 12.8568V21.2234C10.897 21.4629 10.8029 21.6597 10.6147 21.8136C10.4265 21.9505 10.2468 22.019 10.0757 22.019H8.79254V25.8173C8.79254 25.9028 8.74977 25.9798 8.66422 26.0482C8.57867 26.0996 8.4589 26.1252 8.30492 26.1252H7.48367C7.39812 26.1252 7.32113 26.0996 7.25269 26.0482C7.18425 25.9798 7.15003 25.9028 7.15003 25.8173V22.019ZM21.291 21.711H20.4697C19.9394 21.711 19.6742 21.4458 19.6742 20.9154V13.9604C19.6742 13.8064 19.7426 13.6695 19.8795 13.5498C20.0335 13.4129 20.2302 13.3445 20.4697 13.3445H21.291V10.3418C21.291 10.2562 21.3252 10.1878 21.3937 10.1364C21.4621 10.068 21.5391 10.0338 21.6246 10.0338H22.2662C22.3518 10.0338 22.4288 10.068 22.4972 10.1364C22.5657 10.1878 22.5999 10.2562 22.5999 10.3418V13.3445H23.2415C23.481 13.3445 23.6778 13.4129 23.8318 13.5498C23.9857 13.6695 24.0627 13.8064 24.0627 13.9604V20.9154C24.0627 21.1549 23.9857 21.3517 23.8318 21.5057C23.6778 21.6426 23.481 21.711 23.2415 21.711H22.5999V26.7668C22.5999 26.8524 22.5657 26.9294 22.4972 26.9978C22.4288 27.0491 22.3518 27.0748 22.2662 27.0748H21.6246C21.5391 27.0748 21.4621 27.0491 21.3937 26.9978C21.3252 26.9294 21.291 26.8524 21.291 26.7668V21.711ZM14.3103 16.9631H13.3351C13.0956 16.9631 12.8988 16.8947 12.7448 16.7578C12.5908 16.6209 12.5138 16.4327 12.5138 16.1932V7.801C12.5138 7.56147 12.5908 7.37326 12.7448 7.23639C12.8988 7.09951 13.0956 7.03107 13.3351 7.03107H14.3103V3.23277C14.3103 3.14723 14.336 3.07879 14.3873 3.02746C14.4558 2.95902 14.5328 2.9248 14.6183 2.9248H15.4396C15.6107 2.9248 15.7304 2.95902 15.7989 3.02746C15.8844 3.07879 15.9272 3.14723 15.9272 3.23277V7.03107H16.9024C17.0735 7.03107 17.2189 7.09951 17.3387 7.23639C17.4756 7.37326 17.544 7.56147 17.544 7.801V16.1932C17.544 16.4327 17.4756 16.6209 17.3387 16.7578C17.2189 16.8947 17.0735 16.9631 16.9024 16.9631H15.9272V22.9685C15.9272 23.0541 15.8844 23.1311 15.7989 23.1995C15.7304 23.2508 15.6107 23.2765 15.4396 23.2765H14.6183C14.5328 23.2765 14.4558 23.2508 14.3873 23.1995C14.336 23.1311 14.3103 23.0541 14.3103 22.9685V16.9631Z" fill="#706b6d"/>
</svg>

<svg xmlns="http://www.w3.org/2000/svg" fill="none" viewBox="0 0 30 30"><path fill="#706b6d" d="M7.15 22.019h-.642a.64.64 0 0 1-.462-.205.93.93 0 0 1-.18-.59v-8.367q0-.231.18-.41a.64.64 0 0 1 .462-.206h.976V7.647q0-.462.487-.462h.822q.128 0 .205.128.102.103.103.334v4.594h.975q.255 0 .539.205.282.18.282.41v8.367q0 .36-.282.59-.282.207-.54.206H8.794v3.798q0 .129-.129.231a.7.7 0 0 1-.36.077h-.82a.38.38 0 0 1-.231-.077.32.32 0 0 1-.103-.23zm14.141-.308h-.821q-.796 0-.796-.796V13.96q0-.23.206-.41a.86.86 0 0 1 .59-.206h.821v-3.002q0-.129.103-.206a.32.32 0 0 1 .23-.102h.642a.32.32 0 0 1 .231.102q.103.077.103.206v3.002h.641q.36 0 .59.206.232.18.232.41v6.955a.8.8 0 0 1-.231.59.86.86 0 0 1-.59.206H22.6v5.056a.32.32 0 0 1-.103.23.38.38 0 0 1-.23.078h-.642a.38.38 0 0 1-.231-.077.32.32 0 0 1-.103-.231zm-6.98-4.748h-.976a.86.86 0 0 1-.59-.205q-.231-.205-.231-.565V7.801q0-.36.23-.565a.86.86 0 0 1 .591-.205h.975V3.233q0-.129.077-.206a.32.32 0 0 1 .231-.102h.822q.255 0 .359.102.128.078.128.206V7.03h.975a.56.56 0 0 1 .437.205q.205.205.205.565v8.392q0 .36-.205.565a.56.56 0 0 1-.437.205h-.975v6.005q0 .129-.128.232-.103.076-.36.076h-.82a.38.38 0 0 1-.232-.076.38.38 0 0 1-.077-.232z"/></svg>
